svgs/sharp-regular/nfc-trash.svg

<svg xmlns="http://www.w3.org/2000/svg" viewBox="0 0 640 512"><!--! Font Awesome Pro 6.6.0 by @fontawesome - https://fontawesome.com License - https://fontawesome.com/license (Commercial License) Copyright 2024 Fonticons, Inc. --><path d="M400 80L48 80l0 352 330.2 0 3.4 48L48 480 0 480l0-48L0 80 0 32l48 0 352 0 48 0 0 48 0 80-13.7 0-16 32L400 192l0-112zM352 192l0 96 15.9 0 .1 1.1 0 86.9 0 24-24 0-240 0-24 0 0-24 0-240 0-24 24 0 32 0 24 0 0 48-24 0-8 0 0 192 192 0 0-192-72 0 0 54.4c14.3 8.3 24 23.8 24 41.6c0 26.5-21.5 48-48 48s-48-21.5-48-48c0-17.8 9.7-33.3 24-41.6l0-78.4 0-24 24 0 120 0 24 0 0 24 0 56-16 0zm102.1 0l9.9 0 96 0 9.9 0 4.4 8.8L585.9 224l38.1 0 16 0 0 32-16 0-48 0-128 0-48 0-16 0 0-32 16 0 38.1 0 11.6-23.2 4.4-8.8zM608 512l-192 0L400 288l224 0L608 512z"/></svg>

<svg xmlns="http://www.w3.org/2000/svg" viewBox="0 0 640 512"><!--! Font Awesome Pro 6.5.2 by @fontawesome - https://fontawesome.com License - https://fontawesome.com/license (Commercial License) Copyright 2024 Fonticons, Inc. --><path d="M400 80H48V432H378.2l3.4 48H48 0V432 80 32H48 400h48V80v80H434.3l-16 32H400V80zM352 192v96h15.9l.1 1.1V376v24H344 104 80V376 136 112h24 32 24v48H136h-8V352H320V160H248v54.4c14.3 8.3 24 23.8 24 41.6c0 26.5-21.5 48-48 48s-48-21.5-48-48c0-17.8 9.7-33.3 24-41.6V136 112h24H344h24v24 56H352zm102.1 0H464h96 9.9l4.4 8.8L585.9 224H624h16v32H624 576 448 400 384V224h16 38.1l11.6-23.2 4.4-8.8zM608 512H416L400 288H624L608 512z"/></svg>
